X: 23741
T: Little Beggarman, The
R: reel
M: 4/4
K: Amixolydian
|:EA~A^G ABcd|efec d2cd|eA~A^G ABcA|BAEF =G3F|
EA~A^G ABcd|efec d2cd|e~a3 ~aged|1 cA~A^G A4:|2 cA~A^G A2ef||
|:~g3a gfef|~gfec d2cd|eA~A^G ABcA|BAEF =G3F|
EA~A^G ABcd|efec d2cd|e~a3 ~aged|1 cA~A^G A2ef:|2 cA~A^G A4||

